prod/images/flags-1x1/fo.svg

<svg viewBox="0 0 512 512" xmlns="http://www.w3.org/2000/svg" xmlns:xlink="http://www.w3.org/1999/xlink"><clipPath id="a"><path d="m0 0h512v512h-512z"/></clipPath><g clip-path="url(#a)" fill-rule="evenodd" stroke-width="0"><path d="m-78 0h708.2v512h-708.2z" fill="#fff"/><path d="m-75.9 199.1h198.3v-199.1h113.3v199.1h396.6v113.9h-396.6v199h-113.3v-199.1h-198.4v-113.9z" fill="#003897"/><path d="m-75.9 227.6h226.6v-227.6h56.7v227.6h424.9v56.9h-425v227.5h-56.6v-227.6h-226.6z" fill="#d72828"/></g></svg>

<svg viewBox="0 0 512 512" xmlns="http://www.w3.org/2000/svg"><clipPath id="a"><path d="M0 0h512v512H0z"/></clipPath><g clip-path="url(#a)" fill-rule="evenodd" stroke-width="0"><path d="M-78 0h708.2v512H-78z" fill="#fff"/><path d="M-75.9 199.1h198.3V0h113.3v199.1h396.6V313H235.7v199H122.4V312.9H-76V199z" fill="#003897"/><path d="M-75.9 227.6h226.6V0h56.7v227.6h424.9v56.9h-425V512h-56.6V284.4H-75.9z" fill="#d72828"/></g></svg>
